X: 11648
T: Eileen O'Brien's
R: reel
M: 4/4
K: Cmajor
|:cG ~G2 AGEA|GCEG cedB|cG~G2 AcGc|AEGE DCA,C|
G,C~C2 EG~G2|AG (3^FGA G2AB|c2ed cAGc|AEGE D3B:|
|:c2ec gcec|ecde cGGA|_B2dB fBdB|cBGA _B2AB
Gc~c2 ecgf|ecde cdef|gfdB cAGc|AEGE D3B:|

